build/img/icon-discussion.svg

<svg width="32" height="32" viewBox="0 0 32 32" fill="none" xmlns="http://www.w3.org/2000/svg">
<path d="M27.9661 1.93939H3.96932C3.17378 1.93939 2.41082 2.25683 1.84829 2.82188C1.28575 3.38692 0.969727 4.15329 0.969727 4.95238V21.0216C0.969727 21.8207 1.28575 22.5871 1.84829 23.1521C2.41082 23.7172 3.17378 24.0346 3.96932 24.0346H10.9684L15.9677 30.0606L20.967 24.0346H27.9661C28.7616 24.0346 29.5246 23.7172 30.0871 23.1521C30.6497 22.5871 30.9657 21.8207 30.9657 21.0216V4.95238C30.9657 4.15329 30.6497 3.38692 30.0871 2.82188C29.5246 2.25683 28.7616 1.93939 27.9661 1.93939V1.93939Z" stroke="#FCA844" stroke-width="2" stroke-miterlimit="10" stroke-linecap="square"/>
<path d="M7.53125 10.3757H23.4666" stroke="#FCA844" stroke-width="2" stroke-miterlimit="10" stroke-linecap="square"/>
<path d="M7.53125 16H16.905" stroke="#FCA844" stroke-width="2" stroke-miterlimit="10" stroke-linecap="square"/>
</svg>

<svg width="32" height="32" fill="none" xmlns="http://www.w3.org/2000/svg"><path d="M27.966 1.94H3.97a2.99 2.99 0 00-2.12.882 3.02 3.02 0 00-.88 2.13v16.07c0 .799.317 1.565.88 2.13a2.993 2.993 0 002.12.883h7l4.999 6.026 4.999-6.026h7c.795 0 1.558-.318 2.12-.883a3.02 3.02 0 00.879-2.13V4.952c0-.799-.316-1.565-.879-2.13a2.993 2.993 0 00-2.12-.883v0zM7.531 10.376h15.936M7.531 16h9.374" stroke="#FCA844" stroke-width="2" stroke-miterlimit="10" stroke-linecap="square"/></svg>
